images/list-ordered.svg

<?xml version="1.0" encoding="UTF-8" standalone="no"?>
<svg width="13px" height="13px" viewBox="0 0 13 13" version="1.1" xmlns="http://www.w3.org/2000/svg" xmlns:xlink="http://www.w3.org/1999/xlink">
    <!-- Generator: Sketch 40.3 (33839) - http://www.bohemiancoding.com/sketch -->
    <title>list-ordered</title>
    <desc>Created with Sketch.</desc>
    <defs></defs>
    <g id="Page-1" stroke="none" stroke-width="1" fill="none" fill-rule="evenodd">
        <g id="list-ordered" fill="#000000">
            <g id="Page-1">
                <g>
                    <g id="list-ordered">
                        <g id="Capa_1">
                            <g id="Group">
                                <path d="M4.20193416,1.46573801 L12.3524043,1.46573801 C12.6899969,1.46573801 12.9636897,1.14356826 12.9636897,0.746180812 C12.9636897,0.348793358 12.6899969,0.0266236163 12.3524043,0.0266236163 L4.20193416,0.0266236163 C3.8643417,0.0266236163 3.5906489,0.348793358 3.5906489,0.746180812 C3.5906489,1.14356826 3.8643417,1.46573801 4.20193416,1.46573801 L4.20193416,1.46573801 L4.20193416,1.46573801 Z" id="Shape"></path>
                                <path d="M12.3524043,5.78308118 L4.20193416,5.78308118 C3.8643417,5.78308118 3.5906489,6.10525092 3.5906489,6.50263837 C3.5906489,6.90002583 3.8643417,7.22219557 4.20193416,7.22219557 L12.3524043,7.22219557 C12.6899969,7.22219557 12.9636897,6.90002583 12.9636897,6.50263837 C12.9636897,6.10520295 12.6900377,5.78308118 12.3524043,5.78308118 L12.3524043,5.78308118 L12.3524043,5.78308118 Z" id="Shape"></path>
                                <path d="M12.3524043,11.5395387 L4.20193416,11.5395387 C3.8643417,11.5395387 3.5906489,11.8617085 3.5906489,12.259096 C3.5906489,12.6564834 3.8643417,12.9786531 4.20193416,12.9786531 L12.3524043,12.9786531 C12.6899969,12.9786531 12.9636897,12.6564834 12.9636897,12.259096 C12.9636897,11.8617085 12.6900377,11.5395387 12.3524043,11.5395387 L12.3524043,11.5395387 L12.3524043,11.5395387 Z" id="Shape"></path>
                                <path d="M0.767203762,1.24895941 L0.767203762,3.05092251 C0.767203762,3.24635425 0.902501568,3.39371956 1.08197492,3.39371956 C1.2584326,3.39371956 1.39662383,3.24314023 1.39662383,3.05092251 L1.39662383,0.356228782 C1.39662383,0.166265682 1.26430094,0.0174132841 1.09538244,0.0174132841 C0.946799369,0.0174132841 0.872467084,0.134749077 0.848056426,0.173317343 C0.847037617,0.174948339 0.846018809,0.176579336 0.845,0.178306273 L0.579050156,0.621169742 C0.527416928,0.687273063 0.481489028,0.793 0.481489028,0.894409596 C0.481448276,1.08773063 0.609166144,1.2454096 0.767203762,1.24895941 L0.767203762,1.24895941 L0.767203762,1.24895941 Z" id="Shape"></path>
                                <path d="M0.35169279,8.19076749 L1.55005643,8.19076749 C1.70691223,8.19076749 1.83454859,8.02809963 1.83454859,7.82815867 C1.83454859,7.63032841 1.70695297,7.46938745 1.55005643,7.46938745 L0.679912226,7.46938745 L0.679912226,7.46348709 C0.679912226,7.35579336 0.889705329,7.18151661 1.05829781,7.04149077 C1.3936489,6.7629262 1.81099373,6.41629151 1.81099373,5.81512546 C1.81099373,5.24461255 1.43542006,4.81446125 0.937344831,4.81446125 C0.460420063,4.81446125 0.100821317,5.20033579 0.100821317,5.7120369 C0.100821317,6.00897417 0.265012539,6.11436531 0.40560815,6.11436531 C0.60684326,6.11436531 0.727103449,5.93797786 0.727103449,5.76753875 C0.727103449,5.66157196 0.750250783,5.53991882 0.930620693,5.53991882 C1.174279,5.53991882 1.1812884,5.79406642 1.1812884,5.82304059 C1.1812884,6.05147602 0.929438872,6.26504059 0.685862069,6.47155351 C0.384783699,6.72680443 0.043523511,7.01616236 0.043523511,7.46358303 L0.043523511,7.84792251 C0.0434827586,8.05299631 0.202865203,8.19076749 0.35169279,8.19076749 L0.35169279,8.19076749 L0.35169279,8.19076749 Z" id="Shape"></path>
                                <path d="M1.77052664,10.543096 C1.77052664,9.95104427 1.47352351,9.61150921 0.955724139,9.61150921 C0.276789969,9.61150921 0.097398119,10.182262 0.097398119,10.4840443 C0.097398119,10.8353801 0.31929467,10.8733247 0.414695925,10.8733247 C0.600485893,10.8733247 0.725269592,10.7263912 0.725269592,10.5076937 C0.725269592,10.4235535 0.75069906,10.3269889 0.948877744,10.3269889 C1.09130721,10.3269889 1.14929781,10.3511661 1.14929781,10.5940885 C1.14929781,10.8314465 1.10601881,10.8573025 0.935551723,10.8573025 C0.771808777,10.8573025 0.648369906,11.009417 0.648369906,11.2110849 C0.648369906,11.4105941 0.773316615,11.5610775 0.93897492,11.5610775 C1.16413166,11.5610775 1.20936677,11.6692989 1.20936677,11.8439594 L1.20936677,11.9187454 C1.20936677,12.2126125 1.11200941,12.2683063 0.932332291,12.2683063 C0.684435736,12.2683063 0.665159875,12.1180627 0.665159875,12.0720111 C0.665159875,11.8978303 0.567068965,11.7220664 0.347902822,11.7220664 C0.155551724,11.7220664 0.0407115988,11.8631476 0.0407115988,12.0995461 C0.0407115988,12.5301291 0.354341693,12.9877675 0.935551723,12.9877675 C1.5001348,12.9877675 1.83723824,12.5881255 1.83723824,11.9187454 L1.83723824,11.8439594 C1.83723824,11.5695203 1.76266144,11.3419483 1.62271787,11.178321 C1.7185674,11.0150775 1.77052664,10.7972435 1.77052664,10.543096 L1.77052664,10.543096 L1.77052664,10.543096 Z" id="Shape"></path>
                            </g>
                        </g>
                    </g>
                </g>
            </g>
        </g>
    </g>
</svg>

<svg width="13" height="13" xmlns="http://www.w3.org/2000/svg"><g fill="#000" fill-rule="evenodd"><path d="M4.202 1.466h8.15c.338 0 .612-.322.612-.72 0-.397-.274-.72-.612-.72h-8.15c-.338 0-.611.323-.611.72 0 .398.273.72.61.72zM12.352 5.783h-8.15c-.338 0-.611.322-.611.72 0 .397.273.72.61.72h8.151c.338 0 .612-.323.612-.72 0-.398-.274-.72-.612-.72zM12.352 11.54h-8.15c-.338 0-.611.322-.611.72 0 .396.273.719.61.719h8.151c.338 0 .612-.323.612-.72 0-.397-.274-.72-.612-.72zM.767 1.249v1.802c0 .195.136.343.315.343.176 0 .315-.15.315-.343V.356c0-.19-.133-.339-.302-.339-.148 0-.223.118-.247.156a.228.228 0 0 0-.003.005L.579.621a.474.474 0 0 0-.098.273c0 .194.128.351.286.355zM.352 8.19H1.55c.157 0 .285-.162.285-.362 0-.198-.128-.359-.285-.359H.68v-.006c0-.107.21-.281.378-.422.336-.278.753-.625.753-1.226 0-.57-.376-1-.874-1-.477 0-.836.385-.836.897 0 .297.164.402.305.402.2 0 .321-.176.321-.346 0-.106.023-.228.204-.228.243 0 .25.254.25.283 0 .228-.252.442-.495.649-.301.255-.642.544-.642.992v.384c0 .205.159.343.308.343zM1.77 10.543c0-.592-.296-.931-.814-.931-.68 0-.859.57-.859.872 0 .351.222.39.318.39.185 0 .31-.148.31-.366 0-.084.026-.181.224-.181.142 0 .2.024.2.267 0 .237-.043.263-.213.263-.164 0-.288.152-.288.354 0 .2.125.35.291.35.225 0 .27.108.27.283v.075c0 .294-.097.35-.277.35-.248 0-.267-.15-.267-.197 0-.174-.098-.35-.317-.35-.192 0-.307.141-.307.378 0 .43.313.888.895.888.564 0 .901-.4.901-1.07v-.074c0-.274-.074-.502-.214-.666.096-.163.148-.38.148-.635z"/></g></svg>
